X: 260
T: Coleman's March
C:Trad (American Old-Time)
B: canberra pickers and fiddlers
B: tunes
M:4/4
L:1/4
R: march
Q: 1/4=90
K:D
V:1 
A/B/ A/G/ | "D"F2 F E/2F/2 | "G"G>F E/F/ G | "D"A A/B/ A/G/ /D/ | "A"E>F E F/G/ |
"D"A d "A"c d | "G"B/c/ B/A/ "D"F/E/ D/F/ | "Em"E E/F/ "A"G/F/ E | "D"D2 :|
|:D/F/ (3A/B/c/ | "D"d2 d2 | "A"c>d c/B/ A | "G"B B/c/ d/c/ B| "D"A>B A/G/ F/G/ |
"D"A d "A"c d | "G"B/c/ B/A/ "D"F/E/ D/F/ | "Em"E E/F/ "A"G/F/ E | "D"D2 :||
% abcbook-tune_id 63ae8f1cde8ad354017900ba
% abcbook-tune_composer_id 
% abcbook-link-0 https://www.youtube.com/watch?v=R0VI30yvTqg
% abcbook-boost 0
% abcbook-difficulty 0
% abcbook-tags canberra pickers and fiddlers,old time tunes,steve ryan,© free
% abcbook-tablature 
% abcbook-transpose 
% abcbook-tuning ADAE
% abcbook-lastupdated 1675261598800
% abcbook-src-url https://tunebook.net/scrape/tunes.abc
% abcbook-soundfonts 
% abcbook-repeats 1


